assets/images/afrikons/shield.svg

<svg viewBox="0 0 50 50" xmlns="http://www.w3.org/2000/svg"><path d="m0 0h50v50h-50z" fill="none"/><path d="m50 46.68-22.29-22.29 8-8a2.7 2.7 0 0 0 3.29-.83l9.43-13.19a1.11 1.11 0 0 0 -1.56-1.54l-13.07 9.57a2.71 2.71 0 0 0 -.8 3.32l-8 8-8-8a2.71 2.71 0 0 0 -.84-3.32l-13.03-9.57a1.11 1.11 0 0 0 -1.56 1.54l9.43 13.19a2.7 2.7 0 0 0 3.34.87l8 8-22.34 22.25 2.71 2.71 22.29-22.29 22.29 22.29z" fill="#0a0a0a"/></svg>

<svg xmlns="http://www.w3.org/2000/svg" viewBox="0 0 50 50"><defs><style>.cls-1{fill:none;}.cls-2{fill:#0a0a0a;}</style></defs><title>shield</title><g id="Layer_2" data-name="Layer 2"><g id="Layer_1-2" data-name="Layer 1"><rect class="cls-1" width="50" height="50"/><path class="cls-2" d="M50,46.68,27.71,24.39l8-8A2.7,2.7,0,0,0,39,15.56L48.43,2.37A1.11,1.11,0,0,0,46.87.83L33.8,10.4A2.71,2.71,0,0,0,33,13.72l-8,8-8-8a2.71,2.71,0,0,0-.84-3.32L3.13.83A1.11,1.11,0,0,0,1.57,2.37L11,15.56a2.7,2.7,0,0,0,3.34.87l8,8L0,46.68l2.71,2.71L25,27.1,47.29,49.39Z"/></g></g></svg>
